X: 26259
T: Megan's
R: reel
M: 4/4
K: Edorian
B,EED EFGA|BedB AFED|B,D3 DEFA|BFAF EDB,A,|
B,EED EFGA|BedB AFED|B,D3 DEFA|BFAF E3A:|
Bedf edBA|Bedf e3g|fdec dBAe|dBAF DEFA|
B3e fedf|edBc d2ef|edBA FEDE|FBAF E3A:|

